X:1
T:Runaway, The [3]
M:6/8
L:1/8
R:Jig
S:Frank Kidson - Old English Country Dances (1890)
Z:AK/Fiddler's Companion
K:E
B|e2e (eg).e|B2B (Bd).B|e2e (eg).e|(b3 b2)B|e2e (eg).e|
B2B Bcd|e2e f>ef|(e3 ed2)::f|g>fe g>fe|a2(f f2)f|
g>fe g>fe|B2(B B2)f|gfe gfe|agf b2a|gfe B2d|(e3 e2):||
